polaris-icons/icons/newicons/DragHandleMinor.svg

<svg width="20" height="20" viewBox="0 0 20 20" fill="none" xmlns="http://www.w3.org/2000/svg">
<path d="M7 3.5C6.44772 3.5 6 3.94772 6 4.5V5.5C6 6.05228 6.44772 6.5 7 6.5H8C8.55228 6.5 9 6.05228 9 5.5V4.5C9 3.94772 8.55228 3.5 8 3.5H7Z" fill="black"/>
<path d="M7 8.5C6.44772 8.5 6 8.94772 6 9.5V10.5C6 11.0523 6.44772 11.5 7 11.5H8C8.55228 11.5 9 11.0523 9 10.5V9.5C9 8.94772 8.55228 8.5 8 8.5H7Z" fill="black"/>
<path d="M6 14.5C6 13.9477 6.44772 13.5 7 13.5H8C8.55228 13.5 9 13.9477 9 14.5V15.5C9 16.0523 8.55228 16.5 8 16.5H7C6.44772 16.5 6 16.0523 6 15.5V14.5Z" fill="black"/>
<path d="M12 3.5C11.4477 3.5 11 3.94772 11 4.5V5.5C11 6.05228 11.4477 6.5 12 6.5H13C13.5523 6.5 14 6.05228 14 5.5V4.5C14 3.94772 13.5523 3.5 13 3.5H12Z" fill="black"/>
<path d="M11 9.5C11 8.94772 11.4477 8.5 12 8.5H13C13.5523 8.5 14 8.94772 14 9.5V10.5C14 11.0523 13.5523 11.5 13 11.5H12C11.4477 11.5 11 11.0523 11 10.5V9.5Z" fill="black"/>
<path d="M12 13.5C11.4477 13.5 11 13.9477 11 14.5V15.5C11 16.0523 11.4477 16.5 12 16.5H13C13.5523 16.5 14 16.0523 14 15.5V14.5C14 13.9477 13.5523 13.5 13 13.5H12Z" fill="black"/>
</svg>

<svg viewBox="0 0 20 20" fill="none" xmlns="http://www.w3.org/2000/svg"><path d="M7 3.5a1 1 0 0 0-1 1v1a1 1 0 0 0 1 1h1a1 1 0 0 0 1-1v-1a1 1 0 0 0-1-1h-1Z" fill="#000"/><path d="M7 8.5a1 1 0 0 0-1 1v1a1 1 0 0 0 1 1h1a1 1 0 0 0 1-1v-1a1 1 0 0 0-1-1h-1Z" fill="#000"/><path d="M6 14.5a1 1 0 0 1 1-1h1a1 1 0 0 1 1 1v1a1 1 0 0 1-1 1h-1a1 1 0 0 1-1-1v-1Z" fill="#000"/><path d="M12 3.5a1 1 0 0 0-1 1v1a1 1 0 0 0 1 1h1a1 1 0 0 0 1-1v-1a1 1 0 0 0-1-1h-1Z" fill="#000"/><path d="M11 9.5a1 1 0 0 1 1-1h1a1 1 0 0 1 1 1v1a1 1 0 0 1-1 1h-1a1 1 0 0 1-1-1v-1Z" fill="#000"/><path d="M12 13.5a1 1 0 0 0-1 1v1a1 1 0 0 0 1 1h1a1 1 0 0 0 1-1v-1a1 1 0 0 0-1-1h-1Z" fill="#000"/></svg>
